X:614
T:Pericote
R:Danza
C:Tradicional
S:Msica Tradicional Asturiana, (C) Tello & Tito. Asturies, 2001.
S:http://pagina.de/MusTradAst <telloytito@asturies.org>
N:El Pericote ye la sea d'identid del folclor Llaniscu.
N:La estructura del baille ye una trada de dos muyeres y un home.
N:N'otra dmina poden intervenir una o delles trades segn les qu'hubiesen nel momentu.
N:Cantbenlu delles muyeres que s'acompaaben de panderetes y tambor.
N:Gei, el Pericote billenlu siempres delles trades al son de la gaita y el tambor.
N:Tantu pol ritmu, comu pol so calter, el Pericote ta emparentu col Corri-Corri de Cabrales.
A:Asturies
O:Llanes
Z:ByD IDEA
M:2/4
L:1/4
Q:1/4=80
K:C
|C E|G3/2 G/|G F|G3/2 G/|A G|E3/2 G/|F D|C3/2 C/|
|E G|F3/2 G/|E D|E2|G F|D3/2 F/|E D|C2|C2|
